X:1
T:Title
%%score { 1 | 2 }
L:1/8
M:6/8
K:Eb
V:1 treble nm="Grand Piano"
V:2 bass 
V:1
 z3 z2[Q:1/4=100] G | G3 G3 | E3- E2 B | [DB]3 [FB]3 | [EB]3- [EB]2 [GB] | c2 c c2 c | %6
 [GB]2 [GB] [GB]2 [GB] | [DFA]2 [DFA] [B,FA]2 [B,FA] | [B,EG]2 [B,FA] [B,GB]2 [EGB] | %9
 [EAc]3 [Ae]3 | [Ge]3- [Ge]2 [B,EG] | [DFA]3 [B,FB]3 | [B,EG]3- [B,EG]2 [EGB] | [EAc]3 [Ae]3 | %14
 [Ge]3- [Ge]2 [B,EG] | [B,EG]3 [A,DF]3 | [G,E]6 |] %17
V:2
 z3 z2 [E,B,E] | [E,B,E]3 [E,B,E]3 | [E,G,B,]3- [E,G,B,]2 [E,G,E] | [B,,F,]3 [D,B,]3 | %4
 [E,G,]3- [E,G,]2 [E,E] | [A,EA]2 [A,EA] [A,EA]2 [A,EA] | [E,E]2 [E,E] [E,E]2 [E,E] | %7
 B,,2 B,, B,,2 B,, | E,2 E, E,2 E, | A,3 [A,C]3 | [E,B,]3- [E,B,]2 E, | B,,3 D,3 | E,3- E,2 E, | %13
 A,3 [A,C]3 | [E,B,]3- [E,B,]2 E, | B,,3 B,,3 | E,6 |] %17

